X: 058
T: the Maccarony
B: 204 Favourite Country Dances
N: Published by Straight & Skillern, London ca.1775
F: http://imslp.org/wiki/204_Favourite_Country_Dances_(Various) p.29 #58
Z: 2014 John Chambers <jc:trillian.mit.edu>
M: 2/4
L: 1/8
K: D
% - - - - - - - - - - - - - - - - - - - - - - - - -
|:\
df/g/af | dAFA | dBBG | dBBG |\
df/g/af | dBGB | AFFD | AFFD :|
|:\
Ac/d/ec | eccA | dBBG | dBBG |\
ce/f/ge | Bd/e/fd | Ac/d/ec | d2D2 :|
% - - - - - - - - - - - - - - - - - - - - - - - - -
%%begintext align
%% Cast off 1 Cu. cast up again cross over
%% 1 Cu. Right & Left
%%endtext

%%sep 1 1 500
%%sep 1 1 500
